X: 42443
T: Western, The
R: hornpipe
M: 4/4
K: Cmajor
gf|:ec c2 GcEc|ec (3cBc GcEc|AF F2 CFA,F|(3ABc Bd cegf:|
|:(3efe ce gage|(3fgf df afgf|1 (3efe ce agfe|
(3ded (3cBA G2 gf:|2 (3efe ce dGBC|dccB c4||

